; generated by Slic3r 1.1.7 on 2015-03-05 at 01:03:15

; perimeters extrusion width = 0.40mm
; infill extrusion width = 1.28mm
; solid infill extrusion width = 0.68mm
; top infill extrusion width = 0.68mm

G21 ; set units to millimeters
M107
M104 S220 ; set temperature
G28 ; home all axes
G1 Z5 F5000 ; lift nozzle

M109 S220 ; wait for temperature to be reached
G90 ; use absolute coordinates
G92 E0
M82 ; use absolute distances for extrusion
G1 F1800.000 E-1.00000
G92 E0
G1 Z0.100 F7800.000
G1 X88.573 Y88.573 F7800.000
G1 E1.00000 F1800.000
G1 X89.006 Y88.152 E1.00413 F600.000
G1 X89.664 Y87.574 E1.01011
G1 X90.352 Y87.032 E1.01610
G1 X91.068 Y86.529 E1.02208
G1 X91.811 Y86.065 E1.02806
G1 X92.577 Y85.642 E1.03404
G1 X93.365 Y85.262 E1.04003
G1 X94.173 Y84.924 E1.04601
G1 X94.997 Y84.631 E1.05199
G1 X95.837 Y84.382 E1.05797
G1 X96.689 Y84.180 E1.06396
G1 X97.550 Y84.024 E1.06994
G1 X98.418 Y83.915 E1.07592
G1 X99.292 Y83.853 E1.08190
G1 X100.438 Y83.845 E1.08973
G1 X101.042 Y83.871 E1.09387 F600.000
G1 X101.913 Y83.951 E1.09985
G1 X102.779 Y84.078 E1.10583
G1 X103.637 Y84.252 E1.11181
G1 X104.744 Y84.551 E1.11965
G1 X105.319 Y84.737 E1.12378
G1 X106.137 Y85.048 E1.12976
G1 X107.181 Y85.522 E1.13759
G1 X107.718 Y85.799 E1.14172
G1 X108.475 Y86.237 E1.14770
G1 X109.428 Y86.874 E1.15554
G1 X109.914 Y87.234 E1.15967
G1 X110.590 Y87.790 E1.16565
G1 X111.427 Y88.573 E1.17348
G1 X111.848 Y89.007 E1.17761
G1 X112.426 Y89.664 E1.18360
G1 X113.126 Y90.572 E1.19143
G1 X113.471 Y91.068 E1.19556
G1 X113.935 Y91.811 E1.20154
G1 X114.358 Y92.577 E1.20752
G1 X114.738 Y93.365 E1.21351
G1 X115.169 Y94.427 E1.22134
G1 X115.369 Y94.997 E1.22547
G1 X115.618 Y95.837 E1.23145
G1 X115.820 Y96.689 E1.23744
G1 X115.976 Y97.550 E1.24342
G1 X116.085 Y98.418 E1.24940
G1 X116.147 Y99.292 E1.25538
G1 X116.155 Y100.438 E1.26322
G1 X116.129 Y101.042 E1.26735
G1 X116.049 Y101.913 E1.27333
G1 X115.922 Y102.779 E1.27931
G1 X115.748 Y103.637 E1.28529
G1 X115.449 Y104.744 E1.29313
G1 X115.263 Y105.319 E1.29726
G1 X114.952 Y106.137 E1.30324
G1 X114.478 Y107.181 E1.31107
G1 X114.201 Y107.718 E1.31520
G1 X113.763 Y108.475 E1.32119
G1 X113.126 Y109.428 E1.32902
G1 X112.766 Y109.914 E1.33315
G1 X112.210 Y110.590 E1.33913
G1 X111.427 Y111.427 E1.34696
G1 X110.993 Y111.848 E1.35110
G1 X110.336 Y112.426 E1.35708
G1 X109.428 Y113.126 E1.36491
G1 X108.932 Y113.471 E1.36904
G1 X108.189 Y113.935 E1.37502
G1 X107.180 Y114.478 E1.38286
G1 X106.635 Y114.738 E1.38699
G1 X105.827 Y115.076 E1.39297
G1 X104.743 Y115.449 E1.40080
G1 X104.163 Y115.618 E1.40493
G1 X103.311 Y115.820 E1.41092
G1 X102.450 Y115.976 E1.41690
G1 X101.582 Y116.085 E1.42288
G1 X100.708 Y116.147 E1.42886
G1 X99.562 Y116.155 E1.43669
G1 X98.958 Y116.129 E1.44083
G1 X98.087 Y116.049 E1.44681
G1 X97.221 Y115.922 E1.45279
G1 X96.363 Y115.748 E1.45877
G1 X95.256 Y115.449 E1.46661
G1 X94.681 Y115.263 E1.47074
G1 X93.863 Y114.952 E1.47672
G1 X93.062 Y114.598 E1.48270
G1 X92.282 Y114.201 E1.48868
G1 X91.296 Y113.617 E1.49652
G1 X90.792 Y113.284 E1.50065
G1 X90.086 Y112.766 E1.50663
G1 X89.410 Y112.210 E1.51261
G1 X88.764 Y111.619 E1.51859
G1 X88.152 Y110.994 E1.52458
G1 X87.404 Y110.125 E1.53241
G1 X87.032 Y109.648 E1.53654
G1 X86.529 Y108.932 E1.54252
G1 X85.932 Y107.954 E1.55036
G1 X85.642 Y107.423 E1.55449
G1 X85.262 Y106.635 E1.56047
G1 X84.831 Y105.573 E1.56830
G1 X84.631 Y105.003 E1.57243
G1 X84.382 Y104.163 E1.57841
G1 X84.180 Y103.311 E1.58440
G1 X84.024 Y102.450 E1.59038
G1 X83.893 Y101.312 E1.59821
G1 X83.853 Y100.708 E1.60234
G1 X83.838 Y99.833 E1.60833
G1 X83.871 Y98.958 E1.61431
G1 X83.951 Y98.087 E1.62029
G1 X84.078 Y97.221 E1.62627
G1 X84.252 Y96.363 E1.63226
G1 X84.472 Y95.515 E1.63824
G1 X84.831 Y94.427 E1.64607
G1 X85.048 Y93.863 E1.65020
G1 X85.402 Y93.062 E1.65618
G1 X85.932 Y92.046 E1.66401
G1 X86.237 Y91.525 E1.66815
G1 X86.716 Y90.792 E1.67413
G1 X87.234 Y90.086 E1.68011
G1 X87.790 Y89.410 E1.68609
G1 X88.530 Y88.615 E1.69352
G1 F1800.000 E0.69352
G92 E0
G1 X92.565 Y106.534 F7800.000
G1 E1.00000 F1800.000
G1 X93.466 Y107.435 E1.00871 F600.000
G1 F1800.000 E0.00871
G92 E0
G1 X107.955 Y94.452 F7800.000
G1 E1.00000 F1800.000
G1 X108.578 Y95.075 E1.00602 F600.000
G1 X108.361 Y95.091 E1.00751
G1 X108.861 Y95.591 E1.01233
G1 X108.642 Y95.605 E1.01383
G1 X109.066 Y96.028 E1.01792
G1 X108.855 Y96.050 E1.01937
G1 X109.231 Y96.427 E1.02301
G1 X109.025 Y96.453 E1.02443
G1 X109.366 Y96.795 E1.02773
G1 X109.164 Y96.825 E1.02913
G1 X109.473 Y97.135 E1.03212
G1 X109.272 Y97.166 E1.03351
G1 X109.567 Y97.461 E1.03636
G1 X109.367 Y97.494 E1.03775
G1 X109.644 Y97.771 E1.04043
G1 X109.446 Y97.805 E1.04181
G1 X109.707 Y98.066 E1.04433
G1 X109.508 Y98.100 E1.04571
G1 X109.762 Y98.354 E1.04817
G1 X109.564 Y98.389 E1.04954
G1 X109.802 Y98.627 E1.05183
G1 X109.603 Y98.661 E1.05321
G1 X109.838 Y98.896 E1.05549
G1 X109.640 Y98.931 E1.05686
G1 X109.861 Y99.152 E1.05900
G1 X109.661 Y99.185 E1.06038
G1 X109.882 Y99.405 E1.06251
G1 X109.682 Y99.439 E1.06389
G1 X109.888 Y99.644 E1.06588
G1 X109.690 Y99.680 E1.06725
G1 X109.890 Y99.879 E1.06918
G1 X109.697 Y99.919 E1.07053
G1 X109.892 Y100.114 E1.07241
G1 X109.695 Y100.150 E1.07378
G1 X109.889 Y100.344 E1.07565
G1 X109.689 Y100.377 E1.07704
G1 X109.875 Y100.563 E1.07884
G1 X109.679 Y100.600 E1.08020
G1 X109.861 Y100.782 E1.08196
G1 X109.661 Y100.815 E1.08334
G1 X109.847 Y101.000 E1.08514
G1 X109.643 Y101.030 E1.08654
G1 X109.824 Y101.210 E1.08829
G1 X109.796 Y101.415 E1.08970
G1 X109.617 Y101.236 E1.09143
G1 X109.589 Y101.440 E1.09284
G1 X109.767 Y101.619 E1.09456
G1 X109.730 Y101.814 E1.09592
G1 X109.558 Y101.642 E1.09758
G1 X109.520 Y101.837 E1.09894
G1 X109.692 Y102.010 E1.10060
G1 X109.651 Y102.201 E1.10194
G1 X109.482 Y102.032 E1.10358
G1 X109.439 Y102.222 E1.10491
G1 X109.605 Y102.388 E1.10652
G1 X109.558 Y102.574 E1.10783
G1 X109.392 Y102.408 E1.10944
G1 X109.345 Y102.593 E1.11075
G1 X109.507 Y102.756 E1.11232
G1 X109.452 Y102.934 E1.11359
G1 X109.291 Y102.773 E1.11515
G1 X109.236 Y102.950 E1.11642
G1 X109.398 Y103.112 E1.11798
G1 X109.337 Y103.284 E1.11923
G1 X109.180 Y103.128 E1.12074
G1 X109.118 Y103.298 E1.12198
G1 X109.275 Y103.455 E1.12350
G1 X109.212 Y103.625 E1.12474
G1 X109.055 Y103.467 E1.12626
G1 X108.991 Y103.637 E1.12750
G1 X109.144 Y103.789 E1.12897
G1 X109.074 Y103.952 E1.13018
G1 X108.921 Y103.799 E1.13166
G1 X108.850 Y103.961 E1.13287
G1 X109.004 Y104.115 E1.13436
G1 X108.929 Y104.272 E1.13555
G1 X108.779 Y104.123 E1.13700
G1 X108.701 Y104.278 E1.13819
G1 X108.851 Y104.428 E1.13964
G1 X108.774 Y104.584 E1.14083
G1 X108.623 Y104.433 E1.14229
G1 X108.545 Y104.587 E1.14347
G1 X108.693 Y104.735 E1.14490
G1 X108.608 Y104.884 E1.14606
G1 X108.461 Y104.736 E1.14749
G1 X108.376 Y104.884 E1.14865
G1 X108.524 Y105.032 E1.15009
G1 X108.436 Y105.176 E1.15125
G1 X108.291 Y105.031 E1.15265
G1 X108.201 Y105.174 E1.15380
G1 X108.343 Y105.316 E1.15517
G1 X108.250 Y105.456 E1.15632
G1 X108.109 Y105.315 E1.15768
G1 X108.017 Y105.456 E1.15883
G1 X108.157 Y105.596 E1.16018
G1 X108.064 Y105.736 E1.16133
G1 X107.922 Y105.593 E1.16271
G1 X107.823 Y105.728 E1.16385
G1 X107.965 Y105.869 E1.16521
G1 X107.863 Y106.000 E1.16635
G1 X107.724 Y105.862 E1.16769
G1 X107.624 Y105.994 E1.16882
G1 X107.761 Y106.132 E1.17015
G1 X107.660 Y106.263 E1.17129
G1 X107.519 Y106.122 E1.17265
G1 X107.413 Y106.249 E1.17378
G1 X107.558 Y106.394 E1.17518
G1 X107.449 Y106.518 E1.17630
G1 X107.308 Y106.377 E1.17767
G1 X107.196 Y106.498 E1.17879
G1 X107.333 Y106.635 E1.18012
G1 X107.217 Y106.751 E1.18124
G1 X107.085 Y106.619 E1.18252
G1 X106.973 Y106.740 E1.18365
G1 X107.101 Y106.868 E1.18488
G1 X106.984 Y106.984 E1.18600
G1 X106.856 Y106.856 E1.18724
G1 X106.738 Y106.971 E1.18836
G1 X106.868 Y107.101 E1.18961
G1 X106.751 Y107.217 E1.19074
G1 X106.620 Y107.086 E1.19201
G1 X106.499 Y107.197 E1.19313
G1 X106.635 Y107.333 E1.19445
G1 X106.518 Y107.449 E1.19557
G1 X106.374 Y107.306 E1.19696
G1 X106.250 Y107.414 E1.19809
G1 X106.394 Y107.558 E1.19948
G1 X106.265 Y107.662 E1.20062
G1 X106.123 Y107.520 E1.20199
G1 X105.992 Y107.622 E1.20312
G1 X106.136 Y107.766 E1.20451
G1 X106.007 Y107.870 E1.20564
G1 X105.862 Y107.724 E1.20705
G1 X105.730 Y107.825 E1.20818
G1 X105.870 Y107.966 E1.20954
G1 X105.733 Y108.061 E1.21069
G1 X105.592 Y107.921 E1.21204
G1 X105.455 Y108.016 E1.21319
G1 X105.595 Y108.156 E1.21454
G1 X105.457 Y108.251 E1.21568
G1 X105.317 Y108.111 E1.21704
G1 X105.174 Y108.200 E1.21819
G1 X105.319 Y108.346 E1.21960
G1 X105.173 Y108.432 E1.22076
G1 X105.030 Y108.289 E1.22214
G1 X104.886 Y108.378 E1.22330
G1 X105.026 Y108.518 E1.22466
G1 X104.880 Y108.605 E1.22582
G1 X104.736 Y108.461 E1.22721
G1 X104.585 Y108.543 E1.22838
G1 X104.733 Y108.691 E1.22981
G1 X104.584 Y108.774 E1.23098
G1 X104.434 Y108.625 E1.23243
G1 X104.278 Y108.702 E1.23362
G1 X104.428 Y108.851 E1.23506
G1 X104.272 Y108.929 E1.23625
G1 X104.120 Y108.776 E1.23772
G1 X103.962 Y108.851 E1.23891
G1 X104.115 Y109.004 E1.24039
G1 X103.952 Y109.074 E1.24160
G1 X103.800 Y108.921 E1.24308
G1 X103.634 Y108.989 E1.24430
G1 X103.789 Y109.144 E1.24580
G1 X103.625 Y109.212 E1.24702
G1 X103.469 Y109.056 E1.24853
G1 X103.298 Y109.119 E1.24977
G1 X103.455 Y109.275 E1.25128
G1 X103.284 Y109.337 E1.25251
G1 X103.125 Y109.178 E1.25405
G1 X102.952 Y109.238 E1.25531
G1 X103.112 Y109.398 E1.25685
G1 X102.934 Y109.452 E1.25813
G1 X102.773 Y109.292 E1.25968
G1 X102.591 Y109.343 E1.26097
G1 X102.756 Y109.507 E1.26256
G1 X102.574 Y109.558 E1.26385
G1 X102.410 Y109.394 E1.26543
G1 X102.221 Y109.438 E1.26676
G1 X102.388 Y109.605 E1.26837
G1 X102.201 Y109.651 E1.26968
G1 X102.031 Y109.481 E1.27133
G1 X101.840 Y109.523 E1.27266
G1 X102.010 Y109.692 E1.27430
G1 X101.814 Y109.730 E1.27566
G1 X101.640 Y109.556 E1.27734
G1 X101.441 Y109.589 E1.27873
G1 X101.619 Y109.767 E1.28045
G1 X101.415 Y109.796 E1.28185
G1 X101.237 Y109.618 E1.28357
G1 X101.210 Y109.824 E1.28499
G1 X101.027 Y109.641 E1.28676
G1 X101.002 Y109.848 E1.28819
G1 X100.818 Y109.664 E1.28997
G1 X100.786 Y109.866 E1.29136
G1 X100.598 Y109.677 E1.29318
G1 X100.571 Y109.883 E1.29461
G1 X100.377 Y109.689 E1.29648
G1 X100.343 Y109.888 E1.29786
G1 X100.150 Y109.696 E1.29972
G1 X100.112 Y109.890 E1.30107
G1 X99.918 Y109.696 E1.30295
G1 X99.881 Y109.892 E1.30432
G1 X99.682 Y109.693 E1.30625
G1 X99.644 Y109.888 E1.30761
G1 X99.436 Y109.679 E1.30962
G1 X99.396 Y109.872 E1.31097
G1 X99.189 Y109.665 E1.31297
G1 X99.147 Y109.856 E1.31431
G1 X98.927 Y109.636 E1.31645
G1 X98.896 Y109.838 E1.31784
G1 X98.665 Y109.607 E1.32008
G1 X98.627 Y109.802 E1.32144
G1 X98.385 Y109.560 E1.32377
G1 X98.354 Y109.762 E1.32516
G1 X98.103 Y109.511 E1.32759
G1 X98.066 Y109.707 E1.32895
G1 X97.803 Y109.444 E1.33149
G1 X97.771 Y109.644 E1.33288
G1 X97.494 Y109.367 E1.33556
G1 X97.461 Y109.567 E1.33695
G1 X97.169 Y109.275 E1.33977
G1 X97.135 Y109.473 E1.34115
G1 X96.821 Y109.159 E1.34418
G1 X96.795 Y109.366 E1.34561
G1 X96.452 Y109.024 E1.34892
G1 X96.427 Y109.231 E1.35035
G1 X96.053 Y108.857 E1.35397
G1 X96.028 Y109.066 E1.35540
G1 X95.592 Y108.629 E1.35962
G1 X95.591 Y108.861 E1.36120
G1 X95.072 Y108.342 E1.36621
G1 X95.092 Y108.594 E1.36794
G1 X94.441 Y107.943 E1.37423
G1 X94.455 Y108.190 E1.37592
G1 X91.809 Y105.545 E1.40149
G1 X92.045 Y105.548 E1.40310
G1 X91.422 Y104.925 E1.40912
G1 X91.639 Y104.909 E1.41061
G1 X91.139 Y104.409 E1.41543
G1 X91.358 Y104.395 E1.41693
G1 X90.934 Y103.972 E1.42102
G1 X91.145 Y103.950 E1.42247
G1 X90.772 Y103.576 E1.42608
G1 X90.975 Y103.547 E1.42749
G1 X90.648 Y103.220 E1.43065
G1 X90.836 Y103.175 E1.43197
G1 X90.529 Y102.868 E1.43493
G1 X90.728 Y102.834 E1.43631
G1 X90.444 Y102.550 E1.43906
G1 X90.633 Y102.506 E1.44039
G1 X90.358 Y102.232 E1.44304
G1 X90.554 Y102.195 E1.44440
G1 X90.293 Y101.934 E1.44692
G1 X90.492 Y101.900 E1.44830
G1 X90.238 Y101.646 E1.45076
G1 X90.436 Y101.611 E1.45214
G1 X90.198 Y101.373 E1.45443
G1 X90.397 Y101.339 E1.45581
G1 X90.162 Y101.104 E1.45809
G1 X90.360 Y101.069 E1.45946
G1 X90.139 Y100.848 E1.46160
G1 X90.339 Y100.815 E1.46298
G1 X90.119 Y100.595 E1.46511
G1 X90.318 Y100.561 E1.46649
G1 X90.109 Y100.352 E1.46851
G1 X90.310 Y100.320 E1.46990
G1 X90.102 Y100.113 E1.47190
G1 X90.303 Y100.081 E1.47329
G1 X90.102 Y99.880 E1.47523
G1 X90.305 Y99.850 E1.47663
G1 X90.109 Y99.654 E1.47853
G1 X90.311 Y99.623 E1.47993
G1 X90.117 Y99.429 E1.48181
G1 X90.321 Y99.400 E1.48322
G1 X90.134 Y99.214 E1.48503
G1 X90.339 Y99.185 E1.48644
G1 X90.152 Y98.998 E1.48825
G1 X90.357 Y98.970 E1.48966
G1 X90.176 Y98.790 E1.49140
G1 X90.204 Y98.585 E1.49282
G1 X90.383 Y98.764 E1.49455
G1 X90.411 Y98.560 E1.49596
G1 X90.233 Y98.381 E1.49768
G1 X90.270 Y98.186 E1.49904
G1 X90.442 Y98.358 E1.50070
G1 X90.480 Y98.163 E1.50206
G1 X90.308 Y97.991 E1.50372
G1 X90.350 Y97.800 E1.50506
G1 X90.518 Y97.968 E1.50668
G1 X90.561 Y97.778 E1.50801
G1 X90.399 Y97.616 E1.50958
G1 X90.448 Y97.433 E1.51088
G1 X90.608 Y97.592 E1.51242
G1 X90.655 Y97.407 E1.51373
G1 X90.498 Y97.249 E1.51525
G1 X90.549 Y97.067 E1.51655
G1 X90.709 Y97.227 E1.51809
G1 X90.764 Y97.050 E1.51936
G1 X90.608 Y96.894 E1.52087
G1 X90.668 Y96.721 E1.52212
G1 X90.820 Y96.873 E1.52358
G1 X90.882 Y96.702 E1.52482
G1 X90.728 Y96.549 E1.52630
G1 X90.788 Y96.376 E1.52755
G1 X90.945 Y96.533 E1.52907
G1 X91.009 Y96.363 E1.53030
G1 X90.856 Y96.211 E1.53178
G1 X90.926 Y96.048 E1.53299
G1 X91.079 Y96.201 E1.53447
G1 X91.150 Y96.039 E1.53568
G1 X90.996 Y95.885 E1.53717
G1 X91.071 Y95.728 E1.53836
G1 X91.221 Y95.877 E1.53981
G1 X91.299 Y95.722 E1.54099
G1 X91.149 Y95.572 E1.54244
G1 X91.226 Y95.416 E1.54363
G1 X91.377 Y95.567 E1.54509
G1 X91.455 Y95.413 E1.54628
G1 X91.307 Y95.265 E1.54770
G1 X91.392 Y95.116 E1.54887
G1 X91.539 Y95.264 E1.55029
G1 X91.624 Y95.116 E1.55146
G1 X91.476 Y94.968 E1.55290
G1 X91.563 Y94.822 E1.55405
G1 X91.709 Y94.969 E1.55547
G1 X91.799 Y94.826 E1.55662
G1 X91.654 Y94.680 E1.55803
G1 X91.745 Y94.538 E1.55918
G1 X91.891 Y94.685 E1.56059
G1 X91.983 Y94.544 E1.56174
G1 X91.838 Y94.399 E1.56315
G1 X91.935 Y94.263 E1.56429
G1 X92.078 Y94.407 E1.56568
G1 X92.177 Y94.272 E1.56681
G1 X92.032 Y94.128 E1.56821
G1 X92.130 Y93.993 E1.56935
G1 X92.276 Y94.138 E1.57076
G1 X92.376 Y94.006 E1.57189
G1 X92.234 Y93.864 E1.57326
G1 X92.338 Y93.735 E1.57440
G1 X92.481 Y93.878 E1.57578
G1 X92.587 Y93.751 E1.57691
G1 X92.442 Y93.606 E1.57831
G1 X92.553 Y93.484 E1.57944
G1 X92.692 Y93.623 E1.58078
G1 X92.804 Y93.502 E1.58191
G1 X92.667 Y93.365 E1.58323
G1 X92.783 Y93.249 E1.58436
G1 X92.915 Y93.381 E1.58564
G1 X93.027 Y93.260 E1.58676
G1 X92.899 Y93.132 E1.58799
G1 X93.016 Y93.016 E1.58912
G1 X93.144 Y93.144 E1.59035
G1 X93.262 Y93.029 E1.59148
G1 X93.132 Y92.899 E1.59273
G1 X93.249 Y92.783 E1.59385
G1 X93.380 Y92.914 E1.59512
G1 X93.501 Y92.803 E1.59625
G1 X93.365 Y92.667 E1.59756
G1 X93.484 Y92.553 E1.59869
G1 X93.626 Y92.694 E1.60006
G1 X93.750 Y92.586 E1.60118
G1 X93.606 Y92.442 E1.60258
G1 X93.735 Y92.338 E1.60371
G1 X93.877 Y92.480 E1.60508
G1 X94.008 Y92.378 E1.60622
G1 X93.864 Y92.234 E1.60761
G1 X93.993 Y92.130 E1.60874
G1 X94.138 Y92.276 E1.61015
G1 X94.270 Y92.175 E1.61128
G1 X94.128 Y92.032 E1.61266
G1 X94.263 Y91.935 E1.61380
G1 X94.408 Y92.079 E1.61519
G1 X94.545 Y91.984 E1.61634
G1 X94.399 Y91.838 E1.61775
G1 X94.538 Y91.745 E1.61890
G1 X94.683 Y91.889 E1.62029
G1 X94.828 Y91.802 E1.62145
G1 X94.680 Y91.654 E1.62288
G1 X94.822 Y91.563 E1.62403
G1 X94.975 Y91.715 E1.62550
G1 X95.121 Y91.629 E1.62666
G1 X94.968 Y91.476 E1.62815
G1 X95.116 Y91.392 E1.62931
G1 X95.267 Y91.543 E1.63077
G1 X95.416 Y91.458 E1.63194
G1 X95.265 Y91.307 E1.63339
G1 X95.416 Y91.226 E1.63457
G1 X95.571 Y91.381 E1.63607
G1 X95.727 Y91.304 E1.63725
G1 X95.572 Y91.149 E1.63876
G1 X95.728 Y91.071 E1.63994
G1 X95.883 Y91.227 E1.64145
G1 X96.039 Y91.150 E1.64263
G1 X95.885 Y90.996 E1.64412
G1 X96.048 Y90.926 E1.64533
G1 X96.200 Y91.079 E1.64680
G1 X96.366 Y91.011 E1.64803
G1 X96.211 Y90.856 E1.64953
G1 X96.376 Y90.788 E1.65075
G1 X96.531 Y90.944 E1.65225
G1 X96.702 Y90.881 E1.65349
G1 X96.549 Y90.728 E1.65497
G1 X96.721 Y90.668 E1.65622
G1 X96.875 Y90.822 E1.65770
G1 X97.048 Y90.762 E1.65895
G1 X96.894 Y90.608 E1.66044
G1 X97.067 Y90.549 E1.66169
