; generated by Slic3r 1.1.7 on 2015-03-06 at 09:17:31

; perimeters extrusion width = 0.40mm
; infill extrusion width = 1.28mm
; solid infill extrusion width = 0.68mm
; top infill extrusion width = 0.68mm

G21 ; set units to millimeters
M107
M104 S220 ; set temperature
G28 ; home all axes
G1 Z5 F5000 ; lift nozzle

M109 S220 ; wait for temperature to be reached
G90 ; use absolute coordinates
G92 E0
M82 ; use absolute distances for extrusion
G1 F1800.000 E-1.00000
G92 E0
G1 Z1.100 F2400.000
G1 X94.559 Y82.574 F2400.000
G1 E1.00000 F1800.000
G1 X95.790 Y81.349 E1.01425 F360.000
G1 X97.800 Y80.778 E1.03138
G1 X98.200 Y80.778 E1.03466
G1 X99.892 Y81.173 E1.04891
G1 X101.279 Y82.336 E1.06375 F360.000
G1 X106.279 Y89.136 E1.13297
G1 X107.022 Y91.400 E1.15251
G1 X107.022 Y107.400 E1.28373
G1 X106.441 Y109.426 E1.30101
G1 X101.441 Y117.426 E1.37838
G1 X100.210 Y118.651 E1.39262
G1 X98.200 Y119.222 E1.40976
G1 X97.800 Y119.222 E1.41304
G1 X96.108 Y118.827 E1.42728
G1 X94.721 Y117.664 E1.44213
G1 X89.721 Y110.864 E1.51135
G1 X88.978 Y108.600 E1.53089
G1 X88.978 Y92.600 E1.66211
G1 X89.559 Y90.574 E1.67939
G1 X94.527 Y82.625 E1.75627
G1 X94.698 Y82.662 F2400.000
G1 X95.909 Y81.469 E1.77020 F360.000
G1 X97.800 Y80.942 E1.78630
G1 X98.200 Y80.942 E1.78958
G1 X99.852 Y81.337 E1.80351
G1 X101.147 Y82.433 E1.81742 F360.000
G1 X106.147 Y89.233 E1.88664
G1 X106.858 Y91.400 E1.90534
G1 X106.858 Y107.400 E2.03656
G1 X106.302 Y109.338 E2.05310
G1 X101.302 Y117.338 E2.13046
G1 X100.091 Y118.531 E2.14440
G1 X98.200 Y119.058 E2.16050
G1 X97.800 Y119.058 E2.16378
G1 X96.148 Y118.663 E2.17771
G1 X94.853 Y117.567 E2.19162
G1 X89.853 Y110.767 E2.26084
G1 X89.142 Y108.600 E2.27954
G1 X89.142 Y92.600 E2.41076
G1 X89.698 Y90.662 E2.42729
G1 X94.667 Y82.712 E2.50417
G1 X94.838 Y82.749 F2400.000
G1 X96.027 Y81.590 E2.51778 F360.000
G1 X97.800 Y81.107 E2.53286
G1 X98.200 Y81.107 E2.53614
G1 X99.812 Y81.501 E2.54975
G1 X101.014 Y82.531 E2.56273 F360.000
G1 X106.014 Y89.331 E2.63195
G1 X106.693 Y91.400 E2.64981
G1 X106.693 Y107.400 E2.78102
G1 X106.162 Y109.251 E2.79682
G1 X101.162 Y117.251 E2.87418
G1 X99.973 Y118.410 E2.88780
G1 X98.200 Y118.893 E2.90287
G1 X97.800 Y118.893 E2.90615
G1 X96.188 Y118.499 E2.91976
G1 X94.986 Y117.469 E2.93274
G1 X89.986 Y110.669 E3.00196
G1 X89.307 Y108.600 E3.01982
G1 X89.307 Y92.600 E3.15104
G1 X89.838 Y90.749 E3.16683
G1 X94.806 Y82.800 E3.24371
G1 X94.977 Y82.836 F2400.000
G1 X96.144 Y81.712 E3.25699 F360.000
G1 X97.800 Y81.271 E3.27105
G1 X98.200 Y81.271 E3.27433
G1 X99.771 Y81.665 E3.28761
G1 X100.882 Y82.628 E3.29966 F360.000
G1 X105.882 Y89.428 E3.36888
G1 X106.529 Y91.400 E3.38590
G1 X106.529 Y107.400 E3.51712
G1 X106.023 Y109.164 E3.53217
G1 X101.023 Y117.164 E3.60954
G1 X99.856 Y118.288 E3.62282
G1 X98.200 Y118.729 E3.63688
G1 X97.800 Y118.729 E3.64016
G1 X96.229 Y118.335 E3.65344
G1 X95.118 Y117.372 E3.66549
G1 X90.118 Y110.572 E3.73471
G1 X89.471 Y108.600 E3.75173
G1 X89.471 Y92.600 E3.88295
G1 X89.977 Y90.836 E3.89800
G1 X94.945 Y82.887 E3.97488
G1 X95.117 Y82.923 F2400.000
G1 X96.261 Y81.835 E3.98782 F360.000
G1 X97.800 Y81.436 E4.00086
G1 X98.200 Y81.436 E4.00414
G1 X99.729 Y81.829 E4.01709
G1 X100.749 Y82.725 E4.02823 F360.000
G1 X105.749 Y89.525 E4.09745
G1 X106.364 Y91.400 E4.11363
G1 X106.364 Y107.400 E4.24484
G1 X105.883 Y109.077 E4.25915
G1 X100.883 Y117.077 E4.33652
G1 X99.739 Y118.165 E4.34947
G1 X98.200 Y118.564 E4.36251
G1 X97.800 Y118.564 E4.36579
G1 X96.271 Y118.171 E4.37873
G1 X95.251 Y117.275 E4.38987
G1 X90.251 Y110.475 E4.45909
G1 X89.636 Y108.600 E4.47527
G1 X89.636 Y92.600 E4.60649
G1 X90.117 Y90.923 E4.62080
G1 X95.085 Y82.974 E4.69767
G1 F1800.000 E3.69767
G92 E0
G1 X97.899 Y84.719 F2400.000
G1 E1.00000 F1800.000
G1 X98.101 Y84.719 E1.00165 F360.000
G1 X98.101 Y84.884 E1.00301
G1 X97.899 Y84.884 E1.00466
G1 X97.899 Y85.050 E1.00602
G1 X98.101 Y85.050 E1.00767
G1 X98.101 Y85.215 E1.00903
G1 X97.899 Y85.215 E1.01068
G1 X97.899 Y85.380 E1.01204
G1 X98.101 Y85.380 E1.01369
G1 X98.101 Y85.545 E1.01504
G1 X97.899 Y85.545 E1.01670
G1 X97.899 Y85.710 E1.01805
G1 X98.101 Y85.710 E1.01971
G1 X98.101 Y85.876 E1.02106
G1 X97.899 Y85.876 E1.02272
G1 X97.899 Y86.041 E1.02407
G1 X98.101 Y86.041 E1.02572
G1 X98.101 Y86.206 E1.02708
G1 X97.899 Y86.206 E1.02873
G1 X97.899 Y86.371 E1.03009
G1 X98.101 Y86.371 E1.03174
G1 X98.101 Y86.536 E1.03310
G1 X97.899 Y86.536 E1.03475
G1 X97.899 Y86.702 E1.03611
G1 X98.101 Y86.702 E1.03776
G1 X98.101 Y86.867 E1.03911
G1 X97.899 Y86.867 E1.04077
G1 X97.899 Y87.032 E1.04212
G1 X98.101 Y87.032 E1.04378
G1 X98.101 Y87.197 E1.04513
G1 X97.899 Y87.197 E1.04679
G1 X97.899 Y87.362 E1.04814
G1 X98.101 Y87.362 E1.04979
G1 X98.101 Y87.528 E1.05115
G1 X97.899 Y87.528 E1.05280
G1 X97.899 Y87.693 E1.05416
G1 X98.101 Y87.693 E1.05581
G1 X98.101 Y87.858 E1.05717
G1 X97.899 Y87.858 E1.05882
G1 X97.899 Y88.023 E1.06018
G1 X98.101 Y88.023 E1.06183
G1 X98.101 Y88.188 E1.06318
G1 X97.899 Y88.188 E1.06484
G1 X97.899 Y88.354 E1.06619
G1 X98.101 Y88.354 E1.06785
G1 X98.101 Y88.519 E1.06920
G1 X97.899 Y88.519 E1.07086
G1 X97.899 Y88.684 E1.07221
G1 X98.101 Y88.684 E1.07386
G1 X98.101 Y88.849 E1.07522
G1 X97.899 Y88.849 E1.07687
G1 X97.899 Y89.014 E1.07823
G1 X98.101 Y89.014 E1.07988
G1 X98.101 Y89.180 E1.08124
G1 X97.899 Y89.180 E1.08289
G1 X97.899 Y89.345 E1.08425
G1 X98.101 Y89.345 E1.08590
G1 X98.101 Y89.510 E1.08725
G1 X97.899 Y89.510 E1.08891
G1 X97.899 Y89.675 E1.09026
G1 X98.101 Y89.675 E1.09192
G1 X98.101 Y89.840 E1.09327
G1 X97.899 Y89.840 E1.09493
G1 X97.899 Y90.005 E1.09628
G1 X98.101 Y90.005 E1.09793
G1 X98.101 Y90.171 E1.09929
G1 X97.899 Y90.171 E1.10094
G1 X97.899 Y90.336 E1.10230
G1 X98.101 Y90.336 E1.10395
G1 X98.101 Y90.501 E1.10531
G1 X97.899 Y90.501 E1.10696
G1 X97.899 Y90.666 E1.10832
G1 X98.101 Y90.666 E1.10997
G1 X98.101 Y90.831 E1.11132
G1 X97.899 Y90.831 E1.11298
G1 X97.899 Y90.997 E1.11433
G1 X98.101 Y90.997 E1.11599
G1 X98.101 Y91.162 E1.11734
G1 X97.899 Y91.162 E1.11900
G1 X97.899 Y91.327 E1.12035
G1 X98.101 Y91.327 E1.12200
G1 X98.101 Y91.492 E1.12336
G1 X97.899 Y91.492 E1.12501
G1 X97.899 Y91.657 E1.12637
G1 X103.081 Y91.657 E1.16886
G1 X103.081 Y91.823 E1.17022
G1 X102.899 Y91.823 E1.17171
G1 X102.899 Y91.988 E1.17306
G1 X103.081 Y91.988 E1.17455
G1 X103.081 Y92.153 E1.17591
G1 X102.899 Y92.153 E1.17740
G1 X102.899 Y92.318 E1.17875
G1 X103.081 Y92.318 E1.18024
G1 X103.081 Y92.483 E1.18160
G1 X102.899 Y92.483 E1.18309
G1 X102.899 Y92.649 E1.18444
G1 X103.081 Y92.649 E1.18593
G1 X103.081 Y92.814 E1.18729
G1 X92.919 Y92.814 E1.27062
G1 X92.919 Y92.979 E1.27198
G1 X93.101 Y92.979 E1.27347
G1 X93.101 Y93.144 E1.27482
G1 X92.919 Y93.144 E1.27631
G1 X92.919 Y93.309 E1.27767
G1 X93.101 Y93.309 E1.27916
G1 X93.101 Y93.475 E1.28051
G1 X92.919 Y93.475 E1.28200
G1 X92.919 Y93.640 E1.28336
G1 X93.101 Y93.640 E1.28485
G1 X93.101 Y93.805 E1.28620
G1 X92.919 Y93.805 E1.28769
G1 X92.919 Y93.970 E1.28905
G1 X103.081 Y93.970 E1.37238
G1 X103.081 Y94.135 E1.37374
G1 X102.899 Y94.135 E1.37523
G1 X102.899 Y94.301 E1.37658
G1 X103.081 Y94.301 E1.37807
G1 X103.081 Y94.466 E1.37943
G1 X102.899 Y94.466 E1.38092
G1 X102.899 Y94.631 E1.38227
G1 X103.081 Y94.631 E1.38376
G1 X103.081 Y94.796 E1.38512
G1 X102.899 Y94.796 E1.38660
G1 X102.899 Y94.961 E1.38796
G1 X103.081 Y94.961 E1.38945
G1 X103.081 Y95.127 E1.39080
G1 X92.919 Y95.127 E1.47414
G1 X92.919 Y95.292 E1.47550
G1 X103.081 Y95.292 E1.55883
G1 X103.081 Y96.448 F2400.000
G1 X92.919 Y96.448 E1.64217 F360.000
G1 X92.919 Y96.283 E1.64352
G1 X93.101 Y96.283 E1.64501
G1 X93.101 Y96.118 E1.64637
G1 X92.919 Y96.118 E1.64786
G1 X92.919 Y95.953 E1.64921
G1 X93.101 Y95.953 E1.65070
G1 X93.101 Y95.787 E1.65206
G1 X92.919 Y95.787 E1.65355
G1 X92.919 Y95.622 E1.65490
G1 X93.101 Y95.622 E1.65639
G1 X93.101 Y95.457 E1.65775
G1 X92.919 Y95.457 E1.65924
G1 F1800.000 E0.65924
G92 E0
G1 X92.919 Y97.605 F2400.000
G1 E1.00000 F1800.000
G1 X103.081 Y97.605 E1.08334 F360.000
G1 X103.081 Y97.439 E1.08469
G1 X102.899 Y97.439 E1.08618
G1 X102.899 Y97.274 E1.08754
G1 X103.081 Y97.274 E1.08903
G1 X103.081 Y97.109 E1.09038
G1 X102.899 Y97.109 E1.09187
G1 X102.899 Y96.944 E1.09322
G1 X103.081 Y96.944 E1.09471
G1 X103.081 Y96.779 E1.09607
G1 X102.899 Y96.779 E1.09756
G1 X102.899 Y96.613 E1.09891
G1 X103.081 Y96.613 E1.10040
G1 F1800.000 E0.10040
G92 E0
G1 X103.081 Y98.761 F2400.000
G1 E1.00000 F1800.000
G1 X92.919 Y98.761 E1.08334 F360.000
G1 X92.919 Y98.596 E1.08469
G1 X93.101 Y98.596 E1.08618
G1 X93.101 Y98.431 E1.08754
G1 X92.919 Y98.431 E1.08903
G1 X92.919 Y98.265 E1.09038
G1 X93.101 Y98.265 E1.09187
G1 X93.101 Y98.100 E1.09322
G1 X92.919 Y98.100 E1.09471
G1 X92.919 Y97.935 E1.09607
G1 X93.101 Y97.935 E1.09756
G1 X93.101 Y97.770 E1.09891
G1 X92.919 Y97.770 E1.10040
G1 F1800.000 E0.10040
G92 E0
G1 X92.919 Y99.917 F2400.000
G1 E1.00000 F1800.000
G1 X103.081 Y99.917 E1.08334 F360.000
G1 X103.081 Y99.752 E1.08469
G1 X102.899 Y99.752 E1.08618
G1 X102.899 Y99.587 E1.08754
G1 X103.081 Y99.587 E1.08903
G1 X103.081 Y99.422 E1.09038
G1 X102.899 Y99.422 E1.09187
G1 X102.899 Y99.257 E1.09322
G1 X103.081 Y99.257 E1.09471
G1 X103.081 Y99.091 E1.09607
G1 X102.899 Y99.091 E1.09756
G1 X102.899 Y98.926 E1.09891
G1 X103.081 Y98.926 E1.10040
G1 X103.081 Y100.083 F2400.000
G1 X92.919 Y100.083 E1.18374 F360.000
G1 X92.919 Y100.248 E1.18509
G1 X93.101 Y100.248 E1.18658
G1 X93.101 Y100.413 E1.18794
G1 X92.919 Y100.413 E1.18943
G1 X92.919 Y100.578 E1.19078
G1 X93.101 Y100.578 E1.19227
G1 X93.101 Y100.743 E1.19363
G1 X92.919 Y100.743 E1.19512
G1 X92.919 Y100.909 E1.19647
G1 X93.101 Y100.909 E1.19796
G1 X93.101 Y101.074 E1.19932
G1 X92.919 Y101.074 E1.20081
G1 X92.919 Y101.239 E1.20216
G1 X103.081 Y101.239 E1.28550
G1 X103.081 Y101.404 E1.28685
G1 X102.899 Y101.404 E1.28834
G1 X102.899 Y101.569 E1.28970
G1 X103.081 Y101.569 E1.29119
G1 X103.081 Y101.735 E1.29254
G1 X102.899 Y101.735 E1.29403
G1 X102.899 Y101.900 E1.29539
G1 X103.081 Y101.900 E1.29688
G1 X103.081 Y102.065 E1.29823
G1 X102.899 Y102.065 E1.29972
G1 X102.899 Y102.230 E1.30108
G1 X103.081 Y102.230 E1.30257
G1 X103.081 Y102.395 E1.30392
G1 X92.919 Y102.395 E1.38726
G1 X92.919 Y102.561 E1.38861
G1 X93.101 Y102.561 E1.39010
G1 X93.101 Y102.726 E1.39146
G1 X92.919 Y102.726 E1.39295
G1 X92.919 Y102.891 E1.39430
G1 X93.101 Y102.891 E1.39579
G1 X93.101 Y103.056 E1.39715
G1 X92.919 Y103.056 E1.39864
G1 X92.919 Y103.221 E1.39999
G1 X93.101 Y103.221 E1.40148
G1 X93.101 Y103.387 E1.40284
G1 X92.919 Y103.387 E1.40433
G1 X92.919 Y103.552 E1.40568
G1 X103.081 Y103.552 E1.48902
G1 X103.081 Y103.717 E1.49037
G1 X102.899 Y103.717 E1.49186
G1 X102.899 Y103.882 E1.49322
G1 X103.081 Y103.882 E1.49471
G1 X103.081 Y104.047 E1.49606
G1 X102.899 Y104.047 E1.49755
G1 X102.899 Y104.213 E1.49891
G1 X103.081 Y104.213 E1.50040
G1 X103.081 Y104.378 E1.50175
G1 X102.899 Y104.378 E1.50324
G1 X102.899 Y104.543 E1.50460
G1 X103.081 Y104.543 E1.50609
G1 X103.081 Y104.708 E1.50744
G1 X92.919 Y104.708 E1.59078
G1 X92.919 Y104.873 E1.59213
G1 X103.081 Y104.873 E1.67547
G1 X103.081 Y106.030 F2400.000
G1 X92.919 Y106.030 E1.75880 F360.000
G1 X92.919 Y105.865 E1.76016
G1 X93.101 Y105.865 E1.76165
G1 X93.101 Y105.699 E1.76300
G1 X92.919 Y105.699 E1.76449
G1 X92.919 Y105.534 E1.76585
G1 X93.101 Y105.534 E1.76734
G1 X93.101 Y105.369 E1.76869
G1 X92.919 Y105.369 E1.77018
G1 X92.919 Y105.204 E1.77154
G1 X93.101 Y105.204 E1.77303
G1 X93.101 Y105.039 E1.77438
G1 X92.919 Y105.039 E1.77587
G1 F1800.000 E0.77587
G92 E0
G1 X92.919 Y107.186 F2400.000
G1 E1.00000 F1800.000
G1 X103.081 Y107.186 E1.08334 F360.000
G1 X103.081 Y107.021 E1.08469
G1 X102.899 Y107.021 E1.08618
G1 X102.899 Y106.856 E1.08754
G1 X103.081 Y106.856 E1.08903
G1 X103.081 Y106.691 E1.09038
G1 X102.899 Y106.691 E1.09187
G1 X102.899 Y106.525 E1.09322
G1 X103.081 Y106.525 E1.09471
G1 X103.081 Y106.360 E1.09607
G1 X102.899 Y106.360 E1.09756
G1 X102.899 Y106.195 E1.09891
G1 X103.081 Y106.195 E1.10040
G1 F1800.000 E0.10040
G92 E0
G1 X98.101 Y108.343 F2400.000
G1 E1.00000 F1800.000
G1 X92.919 Y108.343 E1.04249 F360.000
G1 X92.919 Y108.177 E1.04385
G1 X93.101 Y108.177 E1.04534
G1 X93.101 Y108.012 E1.04669
G1 X92.919 Y108.012 E1.04818
G1 X92.919 Y107.847 E1.04954
G1 X93.101 Y107.847 E1.05103
G1 X93.101 Y107.682 E1.05238
G1 X92.919 Y107.682 E1.05387
G1 X92.919 Y107.517 E1.05523
G1 X93.101 Y107.517 E1.05672
G1 X93.101 Y107.351 E1.05807
G1 X92.919 Y107.351 E1.05956
G1 F1800.000 E0.05956
G92 E0
G1 X97.899 Y108.508 F2400.000
G1 E1.00000 F1800.000
G1 X98.101 Y108.508 E1.00165 F360.000
G1 X98.101 Y108.673 E1.00301
G1 X97.899 Y108.673 E1.00466
G1 X97.899 Y108.838 E1.00602
G1 X98.101 Y108.838 E1.00767
G1 X98.101 Y109.003 E1.00903
G1 X97.899 Y109.003 E1.01068
G1 X97.899 Y109.169 E1.01204
G1 X98.101 Y109.169 E1.01369
G1 X98.101 Y109.334 E1.01504
G1 X97.899 Y109.334 E1.01670
G1 X97.899 Y109.499 E1.01805
G1 X98.101 Y109.499 E1.01971
G1 X98.101 Y109.664 E1.02106
G1 X97.899 Y109.664 E1.02272
G1 X97.899 Y109.829 E1.02407
G1 X98.101 Y109.829 E1.02572
G1 X98.101 Y109.994 E1.02708
G1 X97.899 Y109.994 E1.02873
G1 X97.899 Y110.160 E1.03009
G1 X98.101 Y110.160 E1.03174
G1 X98.101 Y110.325 E1.03310
G1 X97.899 Y110.325 E1.03475
G1 X97.899 Y110.490 E1.03611
G1 X98.101 Y110.490 E1.03776
G1 X98.101 Y110.655 E1.03911
G1 X97.899 Y110.655 E1.04077
G1 X97.899 Y110.820 E1.04212
G1 X98.101 Y110.820 E1.04378
G1 X98.101 Y110.986 E1.04513
G1 X97.899 Y110.986 E1.04679
G1 X97.899 Y111.151 E1.04814
G1 X98.101 Y111.151 E1.04979
G1 X98.101 Y111.316 E1.05115
G1 X97.899 Y111.316 E1.05280
G1 X97.899 Y111.481 E1.05416
G1 X98.101 Y111.481 E1.05581
G1 X98.101 Y111.646 E1.05717
G1 X97.899 Y111.646 E1.05882
G1 X97.899 Y111.812 E1.06018
G1 X98.101 Y111.812 E1.06183
G1 X98.101 Y111.977 E1.06318
G1 X97.899 Y111.977 E1.06484
G1 X97.899 Y112.142 E1.06619
G1 X98.101 Y112.142 E1.06785
G1 X98.101 Y112.307 E1.06920
G1 X97.899 Y112.307 E1.07086
G1 X97.899 Y112.472 E1.07221
G1 X98.101 Y112.472 E1.07386
G1 X98.101 Y112.638 E1.07522
G1 X97.899 Y112.638 E1.07687
G1 X97.899 Y112.803 E1.07823
G1 X98.101 Y112.803 E1.07988
G1 X98.101 Y112.968 E1.08124
G1 X97.899 Y112.968 E1.08289
G1 X97.899 Y113.133 E1.08425
G1 X98.101 Y113.133 E1.08590
G1 X98.101 Y113.298 E1.08725
G1 X97.899 Y113.298 E1.08891
G1 X97.899 Y113.464 E1.09026
G1 X98.101 Y113.464 E1.09192
G1 X98.101 Y113.629 E1.09327
G1 X97.899 Y113.629 E1.09493
G1 X97.899 Y113.794 E1.09628
G1 X98.101 Y113.794 E1.09793
G1 X98.101 Y113.959 E1.09929
G1 X97.899 Y113.959 E1.10094
G1 X97.899 Y114.124 E1.10230
G1 X98.101 Y114.124 E1.10395
G1 X98.101 Y114.290 E1.10531
G1 X97.899 Y114.290 E1.10696
G1 X97.899 Y114.455 E1.10832
G1 X98.101 Y114.455 E1.10997
G1 X98.101 Y114.620 E1.11132
G1 X97.899 Y114.620 E1.11298
G1 X97.899 Y114.785 E1.11433
G1 X98.101 Y114.785 E1.11599
G1 X98.101 Y114.950 E1.11734
G1 X97.899 Y114.950 E1.11900
G1 X97.899 Y115.116 E1.12035
G1 X98.101 Y115.116 E1.12200
G1 X98.101 Y115.281 E1.12336
G1 X97.899 Y115.281 E1.12501
M106 S255
G1 F1800.000 E0.12501
G92 E0
G1 Z1.200 F2400.000
G1 Z1.300 F2400.000
G1 Z1.400 F2400.000
M107
M104 S0 ; turn off temperature
G28 X0  ; home X axis
M84     ; disable motors

; filament used = 5.6mm (0.0cm3)

; avoid_crossing_perimeters = 1
; bed_size = 200,200
; bed_temperature = 0
; bridge_acceleration = 0
; bridge_fan_speed = 100
; bridge_flow_ratio = 1
; brim_width = 0
; complete_objects = 0
; cooling = 1
; default_acceleration = 0
; disable_fan_first_layers = 1
; duplicate_distance = 6
; end_gcode = M104 S0 ; turn off temperature\nG28 X0  ; home X axis\nM84     ; disable motors\n
; external_perimeters_first = 0
; extruder_clearance_height = 20
; extruder_clearance_radius = 20
; extruder_offset = 0x0
; extrusion_axis = E
; extrusion_multiplier = 1.2
; fan_always_on = 0
; fan_below_layer_time = 60
; filament_diameter = 1.75
; first_layer_acceleration = 0
; first_layer_bed_temperature = 0
; first_layer_extrusion_width = 100%
; first_layer_speed = 30%
; first_layer_temperature = 220
; g0 = 0
; gcode_arcs = 0
; gcode_comments = 0
; gcode_flavor = reprap
; infill_acceleration = 0
; infill_first = 0
; layer_gcode = 
; max_fan_speed = 100
; min_fan_speed = 35
; min_print_speed = 10
