; generated by Slic3r 1.2.9 on 2016-02-16 at 20:00:01

; external perimeters extrusion width = 0.50mm
; perimeters extrusion width = 0.72mm
; infill extrusion width = 0.72mm
; solid infill extrusion width = 0.72mm
; top infill extrusion width = 0.72mm

M107
M104 S200 ; set temperature
G28 ; home all axes
G1 Z5 F5000 ; lift nozzle

M109 S200 ; wait for temperature to be reached
G21 ; set units to millimeters
G90 ; use absolute coordinates
M82 ; use absolute distances for extrusion
G92 E0
G1 Z0.350 F7800.000
G1 E-2.00000 F2400.00000
G92 E0
G1 X80.543 Y3.800 F7800.000
G1 E2.00000 F2400.00000
G1 X81.708 Y-20.895 E2.76494 F1800.000
G1 X82.211 Y-23.132 E2.83590
G1 X83.447 Y-25.064 E2.90686
G1 X85.268 Y-26.459 E2.97782
G1 X88.326 Y-27.207 E3.07524
G1 X111.674 Y-27.207 E3.79766
G1 X113.933 Y-26.810 E3.86862
G1 X115.921 Y-25.667 E3.93959 F1800.000
G1 X117.400 Y-23.914 E4.01055
G1 X118.292 Y-20.895 E4.10797
G1 X128.614 Y197.905 E10.88546
G1 X128.622 Y198.315 E10.89815
G1 X128.586 Y200.067 E10.95236
G1 X128.438 Y201.813 E11.00658
G1 X128.384 Y202.259 E11.02047
G1 X128.144 Y203.788 E11.06835
G1 X127.717 Y205.723 E11.12968
G1 X127.599 Y206.165 E11.14382
G1 X127.011 Y208.049 E11.20490
G1 X126.294 Y209.888 E11.26598
G1 X125.658 Y211.266 E11.31293
G1 X124.723 Y213.004 E11.37401
G1 X123.669 Y214.675 E11.43512
G1 X122.504 Y216.268 E11.49619
G1 X121.244 Y217.763 E11.55667
G1 X120.923 Y218.113 E11.57138
G1 X119.527 Y219.509 E11.63246
G1 X118.389 Y220.515 E11.67946
G1 X116.835 Y221.730 E11.74048
G1 X115.200 Y222.835 E11.80156
G1 X114.811 Y223.075 E11.81570
G1 X113.087 Y224.037 E11.87678
G1 X111.720 Y224.695 E11.92373
G1 X109.892 Y225.441 E11.98481
G1 X108.017 Y226.059 E12.04589
G1 X106.104 Y226.546 E12.10696
G1 X105.647 Y226.642 E12.12142
G1 X104.117 Y226.906 E12.16946
G1 X102.201 Y227.120 E12.22910
G1 X101.720 Y227.152 E12.24403
G1 X99.857 Y227.206 E12.30171
G1 X98.052 Y227.141 E12.35757
G1 X96.326 Y226.967 E12.41127
G1 X94.353 Y226.642 E12.47314
G1 X93.896 Y226.546 E12.48759
G1 X91.983 Y226.059 E12.54867
G1 X90.536 Y225.595 E12.59568
G1 X88.698 Y224.879 E12.65671
G1 X86.913 Y224.037 E12.71778
G1 X86.508 Y223.825 E12.73191
G1 X84.800 Y222.835 E12.79299
G1 X83.536 Y221.995 E12.83994
G1 X83.165 Y221.730 E12.85408
G1 X81.609 Y220.514 E12.91516
G1 X80.473 Y219.509 E12.96210
G1 X79.077 Y218.113 E13.02319
G1 X78.768 Y217.776 E13.03732
G1 X77.495 Y216.267 E13.09840
G1 X76.590 Y215.050 E13.14535
G1 X75.510 Y213.397 E13.20643
G1 X74.547 Y211.673 E13.26755
G1 X73.706 Y209.888 E13.32858
G1 X73.529 Y209.467 E13.34272
G1 X72.841 Y207.617 E13.40378
G1 X72.401 Y206.165 E13.45075
G1 X71.944 Y204.244 E13.51185
G1 X71.856 Y203.788 E13.52622
G1 X71.562 Y201.813 E13.58799
G1 X71.412 Y200.019 E13.64368
G1 X71.385 Y197.924 E13.70851
G1 X80.540 Y3.875 E19.71933
G1 E17.71933 F2400.00000
G92 E0
G1 X102.132 Y189.220 F7800.000
G1 E2.00000 F2400.00000
G1 X103.171 Y189.519 E2.03347 F1800.000
G1 X104.166 Y189.931 E2.06680
G1 X105.109 Y190.452 E2.10012
G1 X105.987 Y191.075 E2.13343
G1 X106.790 Y191.793 E2.16675
G1 X107.507 Y192.596 E2.20007
G1 X108.130 Y193.474 E2.23339
G1 X108.651 Y194.416 E2.26671
G1 X109.064 Y195.412 E2.30005
G1 X109.364 Y196.457 E2.33368
G1 X109.542 Y197.506 E2.36661
G1 X109.602 Y198.583 E2.39998
G1 X109.542 Y199.659 E2.43334
G1 X109.364 Y200.706 E2.46619
G1 X109.064 Y201.753 E2.49990
G1 X108.651 Y202.749 E2.53325
G1 X108.130 Y203.691 E2.56656
G1 X107.507 Y204.570 E2.59988
G1 X106.789 Y205.373 E2.63323
G1 X105.977 Y206.097 E2.66688
G1 X105.109 Y206.713 E2.69983
G1 X104.166 Y207.234 E2.73315
G1 X103.171 Y207.646 E2.76648
G1 X102.130 Y207.945 E2.79999
G1 X101.080 Y208.124 E2.83297
G1 X100.001 Y208.185 E2.86640
G1 X98.916 Y208.123 E2.90002
G1 X97.869 Y207.945 E2.93289
G1 X96.829 Y207.646 E2.96637
G1 X95.834 Y207.234 E2.99970
G1 X94.891 Y206.713 E3.03301
G1 X94.013 Y206.090 E3.06633
G1 X93.210 Y205.372 E3.09965
G1 X92.493 Y204.570 E3.13297
G1 X91.869 Y203.691 E3.16629
G1 X91.349 Y202.749 E3.19960
G1 X90.936 Y201.753 E3.23294
G1 X90.636 Y200.710 E3.26654
G1 X90.458 Y199.653 E3.29969
G1 X90.398 Y198.585 E3.33280
G1 X90.460 Y197.496 E3.36654
G1 X90.638 Y196.447 E3.39948
G1 X90.936 Y195.411 E3.43283
G1 X91.349 Y194.416 E3.46614
G1 X91.869 Y193.474 E3.49946
G1 X92.493 Y192.596 E3.53278
G1 X93.210 Y191.793 E3.56610
G1 X94.013 Y191.075 E3.59942
G1 X94.891 Y190.452 E3.63273
G1 X95.834 Y189.931 E3.66605
G1 X96.829 Y189.519 E3.69938
G1 X97.870 Y189.220 E3.73289
G1 X98.928 Y189.040 E3.76610
G1 X99.984 Y188.981 E3.79883 F1800.000
G1 X101.083 Y189.042 E3.83287
G1 X102.058 Y189.207 E3.86347
G1 X101.992 Y189.830 F7800.000
G1 X102.965 Y190.110 E3.89477 F1800.000
G1 X103.895 Y190.495 E3.92593
G1 X104.776 Y190.982 E3.95707
G1 X105.597 Y191.565 E3.98822
G1 X106.347 Y192.235 E4.01937
G1 X107.018 Y192.986 E4.05051
G1 X107.601 Y193.807 E4.08166
G1 X108.087 Y194.688 E4.11280
G1 X108.473 Y195.618 E4.14396
G1 X108.753 Y196.595 E4.17542
G1 X108.920 Y197.576 E4.20619
G1 X108.976 Y198.583 E4.23739
G1 X108.920 Y199.589 E4.26858
G1 X108.754 Y200.567 E4.29928
G1 X108.473 Y201.547 E4.33081
G1 X108.087 Y202.477 E4.36197
G1 X107.601 Y203.358 E4.39312
G1 X107.018 Y204.179 E4.42427
G1 X106.347 Y204.930 E4.45543
G1 X105.587 Y205.607 E4.48691
G1 X104.776 Y206.183 E4.51770
G1 X103.895 Y206.670 E4.54885
G1 X102.964 Y207.055 E4.58000
G1 X101.991 Y207.335 E4.61134
G1 X101.009 Y207.502 E4.64215
G1 X100.001 Y207.559 E4.67341
G1 X98.986 Y207.501 E4.70485
G1 X98.008 Y207.335 E4.73556
G1 X97.035 Y207.055 E4.76686
G1 X96.105 Y206.670 E4.79802
G1 X95.224 Y206.183 E4.82916
G1 X94.403 Y205.601 E4.86031
G1 X93.653 Y204.930 E4.89146
G1 X92.982 Y204.179 E4.92260
G1 X92.399 Y203.358 E4.95375
G1 X91.912 Y202.477 E4.98490
G1 X91.527 Y201.547 E5.01605
G1 X91.247 Y200.571 E5.04748
G1 X91.080 Y199.583 E5.07846
G1 X91.024 Y198.585 E5.10940
G1 X91.081 Y197.567 E5.14096
G1 X91.248 Y196.586 E5.17174
G1 X91.527 Y195.618 E5.20292
G1 X91.912 Y194.688 E5.23406
G1 X92.399 Y193.807 E5.26521
G1 X92.982 Y192.986 E5.29636
G1 X93.653 Y192.235 E5.32750
G1 X94.403 Y191.565 E5.35865
G1 X95.224 Y190.982 E5.38979
G1 X96.105 Y190.495 E5.42094
G1 X97.035 Y190.110 E5.45209
G1 X98.009 Y189.830 E5.48343
G1 X98.998 Y189.662 E5.51447
G1 X99.984 Y189.607 E5.54505 F1800.000
G1 X101.013 Y189.664 E5.57691
G1 X101.918 Y189.818 E5.60534
G1 X101.853 Y190.440 F7800.000
G1 X102.758 Y190.701 E5.63447 F1800.000
G1 X103.623 Y191.059 E5.66344
G1 X104.443 Y191.512 E5.69242
G1 X105.206 Y192.054 E5.72139
G1 X105.905 Y192.678 E5.75037
G1 X106.529 Y193.376 E5.77934
G1 X107.071 Y194.140 E5.80832
G1 X107.524 Y194.959 E5.83729
G1 X107.882 Y195.825 E5.86627
G1 X108.143 Y196.734 E5.89555
G1 X108.298 Y197.646 E5.92416
G1 X108.351 Y198.583 E5.95319
G1 X108.298 Y199.519 E5.98221
G1 X108.144 Y200.428 E6.01075
G1 X107.882 Y201.340 E6.04010
G1 X107.524 Y202.206 E6.06908
G1 X107.071 Y203.025 E6.09806
G1 X106.529 Y203.789 E6.12703
G1 X105.905 Y204.487 E6.15602
G1 X105.197 Y205.118 E6.18532
G1 X104.443 Y205.653 E6.21396
G1 X103.623 Y206.106 E6.24293
G1 X102.758 Y206.465 E6.27191
G1 X101.852 Y206.725 E6.30107
G1 X100.939 Y206.880 E6.32972
G1 X100.001 Y206.933 E6.35880
G1 X99.057 Y206.880 E6.38807
G1 X98.147 Y206.725 E6.41661
G1 X97.242 Y206.465 E6.44575
G1 X96.377 Y206.106 E6.47473
G1 X95.557 Y205.653 E6.50370
G1 X94.793 Y205.111 E6.53268
G1 X94.095 Y204.487 E6.56165
G1 X93.471 Y203.789 E6.59063
G1 X92.929 Y203.025 E6.61960
G1 X92.476 Y202.206 E6.64858
G1 X92.118 Y201.340 E6.67755
G1 X91.857 Y200.432 E6.70680
G1 X91.702 Y199.514 E6.73562
G1 X91.649 Y198.585 E6.76438
G1 X91.703 Y197.637 E6.79378
G1 X91.859 Y196.726 E6.82239
G1 X92.118 Y195.825 E6.85140
G1 X92.476 Y194.959 E6.88037
G1 X92.929 Y194.140 E6.90934
G1 X93.471 Y193.376 E6.93832
G1 X94.095 Y192.678 E6.96729
G1 X94.793 Y192.054 E6.99627
G1 X95.557 Y191.512 E7.02524
G1 X96.377 Y191.059 E7.05422
G1 X97.242 Y190.701 E7.08320
G1 X98.148 Y190.440 E7.11236
G1 X99.068 Y190.284 E7.14123
G1 X99.985 Y190.232 E7.16965 F1800.000
G1 X100.943 Y190.286 E7.19934
G1 X101.779 Y190.428 E7.22559
G1 X102.200 Y190.080 F7800.000
G1 X110.112 Y-18.983 F7800.000
G1 X114.961 Y184.688 E13.52921 F1800.000
G1 X116.469 Y186.547 E13.60327
G1 X117.596 Y188.263 E13.66680
G1 X118.550 Y190.096 E13.73073
G1 X119.086 Y191.383 E13.77387
G1 X119.532 Y192.699 E13.81685
G1 X119.895 Y194.077 E13.86095
G1 X120.159 Y195.458 E13.90446
G1 X120.326 Y196.861 E13.94819
G1 X120.397 Y198.281 E13.99218
G1 X120.370 Y199.667 E14.03505
G1 X120.250 Y201.039 E14.07768
G1 X120.027 Y202.459 E14.12215
G1 X119.713 Y203.829 E14.16565
G1 X119.304 Y205.176 E14.20918
G1 X118.804 Y206.491 E14.25271
G1 X118.214 Y207.768 E14.29624
G1 X117.538 Y209.002 E14.33978
G1 X116.778 Y210.186 E14.38331
G1 X115.938 Y211.314 E14.42684
G1 X115.023 Y212.383 E14.47037
G1 X114.036 Y213.385 E14.51390
G1 X112.982 Y214.318 E14.55743
G1 X111.867 Y215.175 E14.60097
G1 X110.695 Y215.954 E14.64450
G1 X109.472 Y216.649 E14.68803
G1 X108.205 Y217.259 E14.73154
G1 X106.880 Y217.786 E14.77564
G1 X105.558 Y218.210 E14.81862
G1 X104.193 Y218.546 E14.86212
G1 X102.771 Y218.792 E14.90674
G1 X101.407 Y218.933 E14.94919
G1 X99.999 Y218.982 E14.99277
G1 X98.594 Y218.933 E15.03629
G1 X97.229 Y218.792 E15.07875
G1 X95.807 Y218.546 E15.12338
G1 X94.442 Y218.210 E15.16687
G1 X93.103 Y217.781 E15.21039
G1 X91.780 Y217.252 E15.25448
G1 X90.528 Y216.649 E15.29747
G1 X89.305 Y215.954 E15.34100
G1 X88.133 Y215.175 E15.38453
G1 X87.018 Y214.318 E15.42806
G1 X85.964 Y213.385 E15.47160
G1 X84.977 Y212.383 E15.51513
G1 X84.062 Y211.314 E15.55866
G1 X83.222 Y210.186 E15.60219
G1 X82.462 Y209.002 E15.64572
G1 X81.786 Y207.768 E15.68925
G1 X81.196 Y206.491 E15.73279
G1 X80.696 Y205.176 E15.77632
G1 X80.287 Y203.829 E15.81985
G1 X79.972 Y202.459 E15.86335
G1 X79.750 Y201.039 E15.90781
G1 X79.630 Y199.669 E15.95038
G1 X79.603 Y198.272 E15.99361
G1 X79.674 Y196.859 E16.03739
G1 X79.841 Y195.458 E16.08104
G1 X80.105 Y194.076 E16.12457
G1 X80.463 Y192.715 E16.16810
G1 X80.914 Y191.383 E16.21163
G1 X81.450 Y190.096 E16.25477
G1 X82.404 Y188.263 E16.31870
G1 X83.531 Y186.547 E16.38223
G1 X85.039 Y184.688 E16.45629
G1 X89.888 Y-18.983 E22.75991
G1 X110.037 Y-18.983 E23.38335
G1 X110.722 Y-19.608 F7800.000
G1 X115.581 Y184.460 E29.69925 F1800.000
G1 X116.974 Y186.178 E29.76769
G1 X118.135 Y187.947 E29.83317
G1 X119.116 Y189.831 E29.89889
G1 X119.671 Y191.162 E29.94352
G1 X120.130 Y192.519 E29.98783
G1 X120.505 Y193.938 E30.03326
G1 X120.776 Y195.362 E30.07811
G1 X120.949 Y196.809 E30.12319
G1 X121.022 Y198.272 E30.16851
G1 X120.995 Y199.700 E30.21271
G1 X120.871 Y201.115 E30.25666
G1 X120.641 Y202.577 E30.30246
G1 X120.317 Y203.990 E30.34731
G1 X119.896 Y205.378 E30.39218
G1 X119.380 Y206.733 E30.43704
G1 X118.773 Y208.049 E30.48191
G1 X118.075 Y209.321 E30.52677
G1 X117.292 Y210.541 E30.57164
G1 X116.427 Y211.705 E30.61651
G1 X115.483 Y212.806 E30.66137
G1 X114.466 Y213.839 E30.70624
G1 X113.380 Y214.800 E30.75110
G1 X112.230 Y215.684 E30.79597
G1 X111.023 Y216.486 E30.84084
G1 X109.762 Y217.203 E30.88570
G1 X108.456 Y217.832 E30.93056
G1 X107.092 Y218.374 E30.97599
G1 X105.728 Y218.812 E31.02030
G1 X104.321 Y219.158 E31.06514
G1 X102.857 Y219.411 E31.11110
G1 X101.450 Y219.557 E31.15487
G1 X99.999 Y219.607 E31.19978
G1 X98.551 Y219.557 E31.24464
G1 X97.143 Y219.411 E31.28842
G1 X95.679 Y219.158 E31.33438
G1 X94.272 Y218.812 E31.37922
G1 X92.892 Y218.369 E31.42408
G1 X91.528 Y217.824 E31.46951
G1 X90.238 Y217.203 E31.51382
G1 X88.977 Y216.486 E31.55869
G1 X87.770 Y215.684 E31.60355
G1 X86.620 Y214.800 E31.64842
G1 X85.534 Y213.839 E31.69329
G1 X84.517 Y212.806 E31.73815
G1 X83.573 Y211.705 E31.78302
G1 X82.708 Y210.541 E31.82788
G1 X81.925 Y209.321 E31.87275
G1 X81.227 Y208.049 E31.91762
G1 X80.620 Y206.733 E31.96248
G1 X80.104 Y205.378 E32.00735
G1 X79.683 Y203.990 E32.05221
G1 X79.358 Y202.577 E32.09706
G1 X79.129 Y201.115 E32.14286
G1 X79.005 Y199.702 E32.18674
G1 X78.978 Y198.262 E32.23130
G1 X79.051 Y196.806 E32.27642
G1 X79.224 Y195.362 E32.32141
G1 X79.495 Y193.938 E32.36628
G1 X79.864 Y192.536 E32.41114
G1 X80.328 Y191.162 E32.45601
G1 X80.884 Y189.831 E32.50063
G1 X81.865 Y187.947 E32.56636
G1 X83.026 Y186.178 E32.63184
G1 X84.419 Y184.460 E32.70027
G1 X89.278 Y-19.608 E39.01618
G1 X110.647 Y-19.608 E39.67737
G1 X111.332 Y-20.233 F7800.000
G1 X116.200 Y184.232 E46.00556 F1800.000
G1 X117.479 Y185.808 E46.06837
G1 X118.675 Y187.630 E46.13580
G1 X119.683 Y189.566 E46.20332
G1 X120.256 Y190.941 E46.24943
G1 X120.729 Y192.339 E46.29507
G1 X121.115 Y193.800 E46.34184
G1 X121.394 Y195.267 E46.38803
G1 X121.573 Y196.756 E46.43445
G1 X121.647 Y198.262 E46.48111
G1 X121.619 Y199.733 E46.52663
G1 X121.491 Y201.191 E46.57191
G1 X121.255 Y202.696 E46.61904
G1 X120.921 Y204.151 E46.66523
G1 X120.488 Y205.580 E46.71143
G1 X119.957 Y206.975 E46.75763
G1 X119.331 Y208.331 E46.80384
G1 X118.613 Y209.640 E46.85004
G1 X117.806 Y210.897 E46.89624
G1 X116.915 Y212.095 E46.94244
G1 X115.944 Y213.229 E46.98864
G1 X114.896 Y214.293 E47.03484
G1 X113.778 Y215.282 E47.08104
G1 X112.594 Y216.192 E47.12724
G1 X111.350 Y217.018 E47.17344
G1 X110.053 Y217.757 E47.21964
G1 X108.707 Y218.404 E47.26584
G1 X107.303 Y218.963 E47.31260
G1 X105.898 Y219.413 E47.35824
G1 X104.449 Y219.770 E47.40443
G1 X102.942 Y220.030 E47.45173
G1 X101.493 Y220.181 E47.49681
G1 X99.999 Y220.232 E47.54306
G1 X98.507 Y220.181 E47.58925
G1 X97.058 Y220.030 E47.63435
G1 X95.551 Y219.770 E47.68165
G1 X94.102 Y219.413 E47.72784
G1 X92.680 Y218.957 E47.77403
G1 X91.276 Y218.396 E47.82080
G1 X89.947 Y217.757 E47.86644
G1 X88.650 Y217.018 E47.91264
G1 X87.406 Y216.192 E47.95884
G1 X86.222 Y215.282 E48.00504
G1 X85.104 Y214.293 E48.05124
G1 X84.056 Y213.229 E48.09744
G1 X83.085 Y212.095 E48.14364
G1 X82.193 Y210.897 E48.18984
G1 X81.387 Y209.640 E48.23604
G1 X80.669 Y208.331 E48.28224
G1 X80.043 Y206.975 E48.32844
G1 X79.512 Y205.580 E48.37464
G1 X79.079 Y204.151 E48.42084
G1 X78.745 Y202.696 E48.46704
G1 X78.509 Y201.191 E48.51417
G1 X78.381 Y199.736 E48.55937
G1 X78.353 Y198.253 E48.60526
G1 X78.428 Y196.753 E48.65171
G1 X78.606 Y195.267 E48.69804
G1 X78.885 Y193.800 E48.74424
G1 X79.265 Y192.356 E48.79044
G1 X79.743 Y190.941 E48.83664
G1 X80.317 Y189.566 E48.88276
G1 X81.325 Y187.630 E48.95028
G1 X82.521 Y185.808 E49.01771
G1 X83.799 Y184.232 E49.08052
G1 X88.668 Y-20.233 E55.40871
G1 X111.257 Y-20.233 E56.10766
G1 X111.089 Y-19.796 F7800.000
G1 X109.746 Y-18.299 F7800.000
G1 X109.441 Y-18.604 E56.12104 F1800.000
G1 X108.556 Y-18.604 E56.14843
G1 X109.768 Y-17.393 E56.20149
G1 X109.789 Y-16.487 E56.22955
G1 X107.672 Y-18.604 E56.32229
G1 X106.787 Y-18.604 E56.34967
G1 X109.811 Y-15.581 E56.48208
G1 X109.833 Y-14.675 E56.51015
G1 X105.903 Y-18.604 E56.68223
G1 X105.019 Y-18.604 E56.70962
G1 X109.854 Y-13.769 E56.92138
G1 X109.876 Y-12.863 E56.94945
G1 X104.134 Y-18.604 E57.20088
G1 X103.250 Y-18.604 E57.22827
G1 X109.897 Y-11.957 E57.51938
G1 X109.919 Y-11.051 E57.54745
G1 X102.365 Y-18.604 E57.87824
G1 X101.481 Y-18.604 E57.90562
G1 X109.940 Y-10.145 E58.27609
G1 X109.962 Y-9.239 E58.30415
G1 X100.596 Y-18.604 E58.71429
G1 X99.712 Y-18.604 E58.74168
G1 X109.984 Y-8.333 E59.19150
G1 X110.005 Y-7.427 E59.21956
G1 X98.828 Y-18.604 E59.70905
G1 X97.943 Y-18.604 E59.73644
G1 X110.027 Y-6.521 E60.26561
G1 X110.048 Y-5.615 E60.29367
G1 X97.059 Y-18.604 E60.86252
G1 X96.174 Y-18.604 E60.88990
G1 X110.070 Y-4.709 E61.49842
G1 X110.091 Y-3.803 E61.52649
G1 X95.290 Y-18.604 E62.17468
G1 X94.405 Y-18.604 E62.20207
G1 X110.113 Y-2.897 E62.88994
G1 X110.135 Y-1.991 E62.91800
G1 X93.521 Y-18.604 E63.64555
G1 X92.637 Y-18.604 E63.67294
G1 X110.156 Y-1.085 E64.44016
G1 X110.178 Y-0.179 E64.46822
G1 X91.752 Y-18.604 E65.27512
G1 X90.868 Y-18.604 E65.30251
G1 X110.199 Y0.727 E66.14908
G1 X110.221 Y1.633 E66.17715
G1 X90.248 Y-18.339 E67.05179
G1 X90.228 Y-17.475 E67.07855
G1 X110.242 Y2.539 E67.95504
G1 X110.264 Y3.445 E67.98310
G1 X90.207 Y-16.611 E68.86144
G1 X90.187 Y-15.748 E68.88820
G1 X110.286 Y4.351 E69.76838
G1 X110.307 Y5.257 E69.79644
G1 X90.166 Y-14.884 E70.67847
G1 X90.145 Y-14.020 E70.70522
G1 X110.329 Y6.163 E71.58910
G1 X110.350 Y7.069 E71.61716
